btlcenter/img/icon_consulting.svg

<svg fill="none" height="50" viewBox="0 0 50 50" width="50" xmlns="http://www.w3.org/2000/svg"><g fill="#000"><path d="m35.2347 48.4375c.8211.0022 1.6345-.1584 2.3932-.4726.7586-.3142 1.4473-.7758 2.0264-1.358l2.8569-2.8569h1.2388c.2072 0 .4059-.0823.5524-.2288s.2288-.3453.2288-.5524v-4.6876h2.3438v-1.5624h-2.3438v-1.5626h2.3438v-1.5624h-2.3438v-1.5626h2.3438v-1.5624h-2.3438v-1.5626h2.3438v-1.5624h-2.3438v-3.125c0-.2072-.0823-.406-.2288-.5525s-.3452-.2288-.5524-.2288h-2.3438v-2.3437h-1.5624v2.3437h-1.5626v-2.3437h-1.5624v2.3437h-1.5626v-2.3437h-1.5624v2.3437h-2.3438c-.2072 0-.4059.0823-.5524.2288s-.2288.3453-.2288.5525v.3976l-5.2453-3.0598c.8743-1.2891 1.3408-2.8114 1.339-4.3691v-10.9375c-.0009-.82851-.3305-1.62282-.9163-2.20866-.5859-.58585-1.3802-.91539-2.2087-.91634h-.4204c-.2742-.47472-.6685-.86898-1.1432-1.14323s-1.0132-.41884-1.5614-.41927h-3.125c-1.657.00186-3.2457.66094-4.4174 1.83264s-1.8307 2.76033-1.8326 4.41736v9.375c-.0018 1.5577.4647 3.08 1.339 4.3691l-7.21354 4.208c-.58882.345-1.07736.8377-1.41726 1.4295s-.51939 1.2621-.5207 1.9446v18.5175c.00001.2072.08232.406.22883.5525s.34522.2288.55242.2288zm-9.4535-1.5625v-4.2859l4.5252-3.2387c.0691-.0495.1505-.0791.2353-.0856.0848-.0064.1697.0106.2455.0492l.0172.0086c.0992.0492.1795.1297.2284.229.049.0993.0639.212.0426.3207-.2341 1.1562-.5915 2.9433-.5915 2.9433-.0226.1133-.0199.2303.0081.3424.028.1122.0806.2167.1538.3061.0733.0894.1655.1614.27.2108.1045.0495.2186.0751.3342.0751h1.5216c.7095-.0009 1.3977-.2423 1.9523-.6847l2.0085-1.6069c.075-.06.1617-.1038.2545-.1285.0929-.0248.1899-.0299.2848-.0152.095.0148.1858.0491.2668.1009.081.0517.1503.1197.2035.1997.0886.1334.1283.2933.1125.4527-.0158.1593-.0861.3083-.1991.4217l-3.0123 3.0123c-.4343.4367-.9508.7828-1.5198 1.0185-.5689.2357-1.179.3562-1.7948.3545zm9.375-7.8125v-8.6926c.5401-.1407 1.0328-.4229 1.4275-.8175.3946-.3946.6768-.8873.8174-1.4274h2.4427v10.9375zm3.3931 6.4395c-.8203.825-1.9198 1.3128-3.082 1.3673.0956-.0846.1897-.1714.2807-.2624l2.8569-2.8569h1.6964zm-6.5181-20.502h10.9376v17.1875h-3.5586c.0437-.5075-.086-1.0148-.3681-1.439-.0283-.0424-.0584-.0833-.0893-.1235h1.6722c.2072 0 .4059-.0823.5524-.2288s.2288-.3453.2288-.5524v-12.5c0-.2072-.0823-.406-.2288-.5525s-.3452-.2288-.5524-.2288h-3.9062c-.2072 0-.406.0823-.5525.2288s-.2288.3453-.2288.5525c-.0005.4142-.1652.8114-.4582 1.1043-.2929.2929-.69.4577-1.1043.4581-.2072.0001-.4059.0824-.5524.2289s-.2288.3452-.2288.5524v10.1563c0 .2071.0823.4059.2288.5524s.3452.2288.5524.2288h.8978l-1.525 1.2201c-.2773.2213-.6215.3419-.9762.3424h-.5683c.1215-.6062.2798-1.394.4035-2.0053.0683-.3418.049-.6953-.0561-1.0277-.105-.3324-.2925-.6328-.5448-.8733h.0253zm-1.5624 2.3438h-2.3438v1.5624h2.3438v1.5626h-2.3438v1.5624h2.3438v1.5626h-2.3438v1.5624h2.3438v1.5626h-2.3438v1.5624h.9904l-4.3031 3.0799-1.3748-.2426v-8.306c0-.2072-.0823-.4059-.2288-.5524s-.3453-.2288-.5525-.2289h-2.4152l5.7068-8.2431 4.521 2.6372zm-7.8126-19.5313c.1452-.00041.289.02799.4231.08355s.2559.13718.3582.24013l1.5625 1.5624v7.48892c0 1.6576-.6585 3.2473-1.8306 4.4194s-2.7618 1.8306-4.4194 1.8306-3.2473-.6585-4.4194-1.8306-1.8306-2.7618-1.8306-4.4194v-7.48892l1.5625-1.5624c.1026-.10262.2244-.18402.3584-.23955.1341-.05554.2778-.08413.4229-.08413.145 0 .2887.02859.4228.08413.134.05553.2558.13693.3584.23955l1.2388 1.23882c.5003.50023 1.1788.7812 1.8862.7812s1.3859-.28097 1.8862-.7812l1.2388-1.23882c.1023-.10295.2241-.18457.3582-.24013s.2779-.08396.423-.08355zm-3.9062 17.1875c2.0403.001 3.9995-.7991 5.4559-2.228l.3883.2265-5.8442 8.4415-5.8442-8.4415.3883-.2265c1.4564 1.4289 3.4156 2.229 5.4559 2.228zm0 10.9375c.2072 0 .4059-.0823.5524-.2288s.2288-.3453.2288-.5525v-1.5624h2.3438v7.2489l-6.25-1.1029v-6.146h2.3438v1.5624c0 .2072.0823.406.2288.5525s.3452.2288.5524.2288zm6.25-29.6875v1.23882l-.4576-.45757c-.3079-.30933-.6875-.53792-1.1049-.66552v-1.67823c.4143.00047.8114.16525 1.1043.45817.293.29292.4577.69007.4582 1.10433zm-7.8125-3.125h3.125c.4143.00047.8114.16525 1.1043.45817.293.29292.4577.69007.4582 1.10433v1.67823c-.4174.1276-.797.35619-1.1049.66552l-1.2389 1.23882c-.1025.10262-.2243.18402-.3584.23956-.134.05554-.2777.08412-.4228.08412s-.2888-.02858-.4228-.08412c-.1341-.05554-.2559-.13694-.3584-.23956l-1.2389-1.23882c-.5002-.50023-1.1787-.78125-1.8861-.78125-.7075 0-1.386.28102-1.8862.78125l-.4442.44413c.0864-1.18111.6162-2.28589 1.4831-3.09274.8668-.80685 2.0067-1.2561 3.191-1.25764zm-12.5 26.0137c.00079-.4095.10849-.8117.31243-1.1668.20395-.355.49708-.6507.85039-.8577l5.70188-3.3261 5.7068 8.2431h-2.4152c-.2072.0001-.406.0824-.5525.2289s-.2288.3452-.2288.5524v6.6183c-.4572-.161-.853-.46-1.1329-.8557s-.43-.8685-.4296-1.3532v-2.0657h-1.5625v2.0657c-.0011.9186.322 1.8081.9124 2.5118s1.4102 1.1765 2.3149 1.3351l10.054 1.7742v4.032h-10.1563c-2.4855-.0028-4.86848-.9914-6.62602-2.749-1.75755-1.7575-2.74617-4.1405-2.74898-6.626zm0 13.9893c.92568 1.5351 2.21186 2.8213 3.74701 3.747h-3.74701z"/><path d="m38.2812 32.0312h-1.5624v4.6876h1.5624z"/><path d="m17.1875 11.7188h-3.125v1.5624h3.125z"/><path d="m18.75 17.9688c-.0002.2071-.0826.4057-.2291.5521-.1464.1465-.345.2289-.5521.2291h-.7813v1.5625h.7813c.6213-.0007 1.2171-.2479 1.6564-.6873.4394-.4393.6866-1.0351.6873-1.6564v-1.5626h-1.5625z"/><path d="m15.625 15.625c.4315 0 .7812-.3498.7812-.7812 0-.4315-.3497-.7813-.7812-.7813s-.7812.3498-.7812.7813c0 .4314.3497.7812.7812.7812z"/><path d="m23.4375 11.7188h-3.125v1.5624h3.125z"/><path d="m21.875 15.625c.4315 0 .7812-.3498.7812-.7812 0-.4315-.3497-.7813-.7812-.7813s-.7812.3498-.7812.7813c0 .4314.3497.7812.7812.7812z"/></g></svg>

<svg width="50" height="50" viewBox="0 0 50 50" fill="none" xmlns="http://www.w3.org/2000/svg">
<path d="M35.2347 48.4375C36.0558 48.4397 36.8692 48.2791 37.6279 47.9649C38.3865 47.6507 39.0752 47.1891 39.6543 46.6069L42.5112 43.75H43.75C43.9572 43.75 44.1559 43.6677 44.3024 43.5212C44.4489 43.3747 44.5312 43.1759 44.5312 42.9688V38.2812H46.875V36.7188H44.5312V35.1562H46.875V33.5938H44.5312V32.0312H46.875V30.4688H44.5312V28.9062H46.875V27.3438H44.5312V24.2188C44.5312 24.0116 44.4489 23.8128 44.3024 23.6663C44.1559 23.5198 43.9572 23.4375 43.75 23.4375H41.4062V21.0938H39.8438V23.4375H38.2812V21.0938H36.7188V23.4375H35.1562V21.0938H33.5938V23.4375H31.25C31.0428 23.4375 30.8441 23.5198 30.6976 23.6663C30.5511 23.8128 30.4688 24.0116 30.4688 24.2188V24.6164L25.2235 21.5566C26.0978 20.2675 26.5643 18.7452 26.5625 17.1875V6.25C26.5616 5.42149 26.232 4.62718 25.6462 4.04134C25.0603 3.45549 24.266 3.12595 23.4375 3.125H23.0171C22.7429 2.65028 22.3486 2.25602 21.8739 1.98177C21.3992 1.70752 20.8607 1.56293 20.3125 1.5625H17.1875C15.5305 1.56436 13.9418 2.22344 12.7701 3.39514C11.5984 4.56684 10.9394 6.15547 10.9375 7.8125V17.1875C10.9357 18.7452 11.4022 20.2675 12.2765 21.5566L5.06296 25.7646C4.47414 26.1096 3.9856 26.6023 3.6457 27.1941C3.3058 27.7859 3.12631 28.4562 3.125 29.1387V47.6562C3.12501 47.8634 3.20732 48.0622 3.35383 48.2087C3.50034 48.3552 3.69905 48.4375 3.90625 48.4375H35.2347ZM25.7812 46.875V42.5891L30.3064 39.3504C30.3755 39.3009 30.4569 39.2713 30.5417 39.2648C30.6265 39.2584 30.7114 39.2754 30.7872 39.314L30.8044 39.3226C30.9036 39.3718 30.9839 39.4523 31.0328 39.5516C31.0818 39.6509 31.0967 39.7636 31.0754 39.8723C30.8413 41.0285 30.4839 42.8156 30.4839 42.8156C30.4613 42.9289 30.464 43.0459 30.492 43.158C30.52 43.2702 30.5726 43.3747 30.6458 43.4641C30.7191 43.5535 30.8113 43.6255 30.9158 43.6749C31.0203 43.7244 31.1344 43.75 31.25 43.75H32.7716C33.4811 43.7491 34.1693 43.5077 34.7239 43.0653L36.7324 41.4584C36.8074 41.3984 36.8941 41.3546 36.9869 41.3299C37.0798 41.3051 37.1768 41.3 37.2717 41.3147C37.3667 41.3295 37.4575 41.3638 37.5385 41.4156C37.6195 41.4673 37.6888 41.5353 37.742 41.6153C37.8306 41.7487 37.8703 41.9086 37.8545 42.068C37.8387 42.2273 37.7684 42.3763 37.6554 42.4897L34.6431 45.502C34.2088 45.9387 33.6923 46.2848 33.1233 46.5205C32.5544 46.7562 31.9443 46.8767 31.3285 46.875H25.7812ZM35.1562 39.0625V30.3699C35.6963 30.2292 36.189 29.947 36.5837 29.5524C36.9783 29.1578 37.2605 28.6651 37.4011 28.125H39.8438V39.0625H35.1562ZM38.5493 45.502C37.729 46.327 36.6295 46.8148 35.4673 46.8693C35.5629 46.7847 35.657 46.6979 35.748 46.6069L38.6049 43.75H40.3013L38.5493 45.502ZM32.0312 25H42.9688V42.1875H39.4102C39.4539 41.68 39.3242 41.1727 39.0421 40.7485C39.0138 40.7061 38.9837 40.6652 38.9528 40.625H40.625C40.8322 40.625 41.0309 40.5427 41.1774 40.3962C41.3239 40.2497 41.4062 40.0509 41.4062 39.8438V27.3438C41.4062 27.1366 41.3239 26.9378 41.1774 26.7913C41.0309 26.6448 40.8322 26.5625 40.625 26.5625H36.7188C36.5116 26.5625 36.3128 26.6448 36.1663 26.7913C36.0198 26.9378 35.9375 27.1366 35.9375 27.3438C35.937 27.758 35.7723 28.1552 35.4793 28.4481C35.1864 28.741 34.7893 28.9058 34.375 28.9062C34.1678 28.9063 33.9691 28.9886 33.8226 29.1351C33.6761 29.2816 33.5938 29.4803 33.5938 29.6875V39.8438C33.5938 40.0509 33.6761 40.2497 33.8226 40.3962C33.9691 40.5427 34.1678 40.625 34.375 40.625H35.2728L33.7478 41.8451C33.4705 42.0664 33.1263 42.187 32.7716 42.1875H32.2033C32.3248 41.5813 32.4831 40.7935 32.6068 40.1822C32.6751 39.8404 32.6558 39.4869 32.5507 39.1545C32.4457 38.8221 32.2582 38.5217 32.0059 38.2812H32.0312V25ZM30.4688 27.3438H28.125V28.9062H30.4688V30.4688H28.125V32.0312H30.4688V33.5938H28.125V35.1562H30.4688V36.7188H28.125V38.2812H29.1154L24.8123 41.3611L23.4375 41.1185V32.8125C23.4375 32.6053 23.3552 32.4066 23.2087 32.2601C23.0622 32.1136 22.8634 32.0313 22.6562 32.0312H20.241L25.9478 23.7881L30.4688 26.4253V27.3438ZM22.6562 7.8125C22.8014 7.81209 22.9452 7.84049 23.0793 7.89605C23.2134 7.95161 23.3352 8.03323 23.4375 8.13618L25 9.69858V17.1875C25 18.8451 24.3415 20.4348 23.1694 21.6069C21.9973 22.779 20.4076 23.4375 18.75 23.4375C17.0924 23.4375 15.5027 22.779 14.3306 21.6069C13.1585 20.4348 12.5 18.8451 12.5 17.1875V9.69858L14.0625 8.13618C14.1651 8.03356 14.2869 7.95216 14.4209 7.89663C14.555 7.84109 14.6987 7.8125 14.8438 7.8125C14.9888 7.8125 15.1325 7.84109 15.2666 7.89663C15.4006 7.95216 15.5224 8.03356 15.625 8.13618L16.8638 9.375C17.3641 9.87523 18.0426 10.1562 18.75 10.1562C19.4574 10.1562 20.1359 9.87523 20.6362 9.375L21.875 8.13618C21.9773 8.03323 22.0991 7.95161 22.2332 7.89605C22.3673 7.84049 22.5111 7.81209 22.6562 7.8125ZM18.75 25C20.7903 25.001 22.7495 24.2009 24.2059 22.772L24.5942 22.9985L18.75 31.44L12.9058 22.9985L13.2941 22.772C14.7505 24.2009 16.7097 25.001 18.75 25ZM18.75 35.9375C18.9572 35.9375 19.1559 35.8552 19.3024 35.7087C19.4489 35.5622 19.5312 35.3634 19.5312 35.1562V33.5938H21.875V40.8427L15.625 39.7398V33.5938H17.9688V35.1562C17.9688 35.3634 18.0511 35.5622 18.1976 35.7087C18.3441 35.8552 18.5428 35.9375 18.75 35.9375ZM25 6.25V7.48882L24.5424 7.03125C24.2345 6.72192 23.8549 6.49333 23.4375 6.36573V4.6875C23.8518 4.68797 24.2489 4.85275 24.5418 5.14567C24.8348 5.43859 24.9995 5.83574 25 6.25ZM17.1875 3.125H20.3125C20.7268 3.12547 21.1239 3.29025 21.4168 3.58317C21.7098 3.87609 21.8745 4.27324 21.875 4.6875V6.36573C21.4576 6.49333 21.078 6.72192 20.7701 7.03125L19.5312 8.27007C19.4287 8.37269 19.3069 8.45409 19.1728 8.50963C19.0388 8.56517 18.8951 8.59375 18.75 8.59375C18.6049 8.59375 18.4612 8.56517 18.3272 8.50963C18.1931 8.45409 18.0713 8.37269 17.9688 8.27007L16.7299 7.03125C16.2297 6.53102 15.5512 6.25 14.8438 6.25C14.1363 6.25 13.4578 6.53102 12.9576 7.03125L12.5134 7.47538C12.5998 6.29427 13.1296 5.18949 13.9965 4.38264C14.8633 3.57579 16.0032 3.12654 17.1875 3.125ZM4.6875 29.1387C4.68829 28.7292 4.79599 28.327 4.99993 27.9719C5.20388 27.6169 5.49701 27.3212 5.85032 27.1142L11.5522 23.7881L17.259 32.0312H14.8438C14.6366 32.0313 14.4378 32.1136 14.2913 32.2601C14.1448 32.4066 14.0625 32.6053 14.0625 32.8125V39.4308C13.6053 39.2698 13.2095 38.9708 12.9296 38.5751C12.6497 38.1794 12.4996 37.7066 12.5 37.2219V35.1562H10.9375V37.2219C10.9364 38.1405 11.2595 39.03 11.8499 39.7337C12.4403 40.4374 13.2601 40.9102 14.1648 41.0688L24.2188 42.843V46.875H14.0625C11.577 46.8722 9.19402 45.8836 7.43648 44.126C5.67893 42.3685 4.69031 39.9855 4.6875 37.5V29.1387ZM4.6875 43.128C5.61318 44.6631 6.89936 45.9493 8.43451 46.875H4.6875V43.128Z" fill="black"/>
<path d="M38.2812 32.0312H36.7188V36.7188H38.2812V32.0312Z" fill="black"/>
<path d="M17.1875 11.7188H14.0625V13.2812H17.1875V11.7188Z" fill="black"/>
<path d="M18.75 17.9688C18.7498 18.1759 18.6674 18.3745 18.5209 18.5209C18.3745 18.6674 18.1759 18.7498 17.9688 18.75H17.1875V20.3125H17.9688C18.5901 20.3118 19.1859 20.0646 19.6252 19.6252C20.0646 19.1859 20.3118 18.5901 20.3125 17.9688V16.4062H18.75V17.9688Z" fill="black"/>
<path d="M15.625 15.625C16.0565 15.625 16.4062 15.2752 16.4062 14.8438C16.4062 14.4123 16.0565 14.0625 15.625 14.0625C15.1935 14.0625 14.8438 14.4123 14.8438 14.8438C14.8438 15.2752 15.1935 15.625 15.625 15.625Z" fill="black"/>
<path d="M23.4375 11.7188H20.3125V13.2812H23.4375V11.7188Z" fill="black"/>
<path d="M21.875 15.625C22.3065 15.625 22.6562 15.2752 22.6562 14.8438C22.6562 14.4123 22.3065 14.0625 21.875 14.0625C21.4435 14.0625 21.0938 14.4123 21.0938 14.8438C21.0938 15.2752 21.4435 15.625 21.875 15.625Z" fill="black"/>
</svg>
